X:83
T:Sally Gardens
N:page 28
N: hexatonic
N: matches 181
R: Reel
S:via PR
M:4/4
L:1/8
K:G
"G"~G2 DG B2GB|"Em"dBeB "D"dBAB|"G"~d2Bd "C"egdB|\
"D"AcBA "Em"GEDE|"G"~G2DG B2GB|
"Em"dBeB "D"dBAB| "G"~d2Bd "C"egdB|"D"dBAB "G"G4::\
"G"dggf g2dg|"Em"~g2bg aged|
"Am"eaag a2ea| "D"~a2bg ageg| "G"dggf g2dg|"Em"~g2bg ageg|\
"G"d2Bd "C"efge|1 "D"dBAB "G"G4:|
